bootstrap/folder-x.svg

<svg xmlns="http://www.w3.org/2000/svg" width="16" height="16" fill="currentColor" class="bi bi-folder-x" viewBox="0 0 16 16">
  <path d="M.54 3.87.5 3a2 2 0 0 1 2-2h3.672a2 2 0 0 1 1.414.586l.828.828A2 2 0 0 0 9.828 3h3.982a2 2 0 0 1 1.992 2.181L15.546 8H14.54l.265-2.91A1 1 0 0 0 13.81 4H2.19a1 1 0 0 0-.996 1.09l.637 7a1 1 0 0 0 .995.91H9v1H2.826a2 2 0 0 1-1.991-1.819l-.637-7a2 2 0 0 1 .342-1.31zm6.339-1.577A1 1 0 0 0 6.172 2H2.5a1 1 0 0 0-1 .981l.006.139q.323-.119.684-.12h5.396z"/>
  <path d="M11.854 10.146a.5.5 0 0 0-.707.708L12.293 12l-1.146 1.146a.5.5 0 0 0 .707.708L13 12.707l1.146 1.147a.5.5 0 0 0 .708-.708L13.707 12l1.147-1.146a.5.5 0 0 0-.707-.708L13 11.293z"/>
</svg>

<svg viewBox="0 0 16 16" xmlns="http://www.w3.org/2000/svg"><g><path d="M.54 3.87L.5 3v0c0-1.11.89-2 2-2h3.67v0c.53 0 1.03.21 1.41.58l.82.82v0c.37.37.88.58 1.41.58h3.98v0c1.1-.01 2 .89 2 1.99 0 .06-.01.12-.01.18l-.26 2.819h-1.01l.26-2.91v0c.04-.56-.36-1.04-.91-1.09 -.03-.01-.06-.01-.09-.01H2.15v0c-.56-.01-1.01.44-1.01.99 -.01.03 0 .06 0 .09l.637 7H1.77c.04.51.47.9.99.91h6.17v1H2.76v0c-1.04-.01-1.9-.79-2-1.82l-.64-7L.12 5.12c-.05-.47.07-.93.34-1.31ZM6.87 2.293V2.29c-.19-.19-.45-.3-.71-.3H2.48v0c-.55-.01-.99.43-1 .98l0 .13c.21-.08.44-.12.68-.12h5.39l-.71-.71Z"/><path d="M11.85 10.14v0c-.2-.2-.52-.2-.71 0 -.2.19-.2.51 0 .7l1.14 1.14 -1.15 1.14v0c-.2.19-.2.51-.01.7 .19.19.51.19.7 0l1.14-1.15 1.14 1.14v0c.19.19.51.19.7 0 .19-.2.19-.52 0-.71l-1.15-1.15 1.14-1.15v0c.19-.2.19-.52 0-.71 -.2-.2-.52-.2-.71-.01l-1.15 1.14 -1.15-1.15Z"/></g></svg>
